X:148
T:Count D'Artois
R:Reel
B:The Athole Collection
M:C|
L:1/8
K:C
g|e2dc AcGE|GcGE AcGE|e2dc AcGE|FdEc dDD:|
g|ecgc fgag|ecgc Bddf|ecgc fgaf|e/f/g df eccf|ecgc fgaf|
ecgc Bcde|fdec dBcF|EGDF ECC||
N:The last two measures of the second part may be played
N:fdec afgc|GAcd ecc||

